svg/svelte.svg

<svg viewBox="0 0 20 20" xmlns="http://www.w3.org/2000/svg">
<rect width="100%" height="100%" fill="#FF3E00"/>
<path fill-rule="evenodd" clip-rule="evenodd" d="M9.2668 2.71197C11.3883 1.36028 14.3227 1.99055 15.8084 4.11695C16.161 4.61044 16.4122 5.16939 16.5458 5.76099C16.6794 6.35259 16.6935 6.96492 16.5873 7.56205C16.4843 8.13222 16.2669 8.67563 15.9481 9.15945C16.4131 10.0468 16.569 11.0638 16.391 12.0497C16.286 12.6351 16.0601 13.1921 15.7275 13.6851C15.395 14.1781 14.9633 14.5963 14.4599 14.9129L10.7338 17.2878C8.61252 18.6399 5.67799 18.0095 4.1923 15.8828C3.8398 15.3893 3.58938 14.8303 3.45574 14.2387C3.32209 13.6471 3.30791 13.0348 3.41402 12.4377C3.51703 11.8674 3.7346 11.324 4.05359 10.8401C3.58814 9.95301 3.4319 8.93598 3.60959 7.95004C3.71469 7.36463 3.94081 6.80761 4.27348 6.31458C4.60615 5.82155 5.03805 5.40337 5.54157 5.0868L9.2668 2.71197ZM7.12925 15.9936C7.69734 16.2041 8.31635 16.2353 8.90272 16.0829C9.1706 16.0113 9.42594 15.8991 9.65985 15.7502L13.3862 13.3762C13.6889 13.1858 13.9486 12.9342 14.1485 12.6377C14.3485 12.3412 14.4844 12.0063 14.5476 11.6543C14.6115 11.2952 14.6029 10.927 14.5225 10.5713C14.4421 10.2156 14.2915 9.87957 14.0795 9.58286C13.7342 9.08506 13.2444 8.70522 12.6764 8.49464C12.1083 8.28406 11.4893 8.25288 10.903 8.4053C10.6351 8.47679 10.3797 8.58895 10.1458 8.73787L8.72415 9.64386C8.65348 9.68859 8.5764 9.72231 8.49558 9.74386C8.31886 9.78969 8.13233 9.7802 7.96118 9.71666C7.79002 9.65313 7.64247 9.53862 7.53846 9.38858C7.47465 9.29906 7.42933 9.19771 7.40515 9.09048C7.38096 8.98324 7.3784 8.87225 7.3976 8.76401C7.41665 8.658 7.4576 8.55712 7.51784 8.46783C7.57808 8.37854 7.65628 8.3028 7.74745 8.24545L11.4744 5.8702C11.5451 5.82542 11.6221 5.79169 11.703 5.7702C11.8797 5.72425 12.0662 5.73366 12.2374 5.79715C12.4085 5.86064 12.5561 5.97514 12.6601 6.12519C12.7739 6.28637 12.8272 6.48258 12.8104 6.67918L12.7975 6.81747L12.9361 6.85947C13.4598 7.01756 13.9525 7.26396 14.3932 7.58803L14.5841 7.72788L14.6542 7.5136C14.6918 7.39981 14.7216 7.28359 14.7434 7.16575C14.8071 6.8067 14.7986 6.43854 14.7182 6.08284C14.6378 5.72714 14.4872 5.39108 14.2752 5.09435C13.9299 4.59656 13.4401 4.21672 12.872 4.00614C12.3039 3.79556 11.6849 3.76438 11.0985 3.91679C10.8307 3.98844 10.5753 4.10064 10.3414 4.2495L6.61504 6.62419C6.31218 6.81444 6.05236 7.06582 5.8522 7.36223C5.65204 7.65865 5.51595 7.99357 5.45263 8.34559C5.38882 8.70464 5.39736 9.07281 5.47775 9.42851C5.55813 9.78421 5.70875 10.1203 5.92076 10.417C6.26609 10.9148 6.75587 11.2946 7.32396 11.5052C7.89204 11.7158 8.51107 11.747 9.09743 11.5945C9.36526 11.523 9.62058 11.4109 9.85457 11.2623L11.2764 10.3558C11.3471 10.3111 11.4241 10.2774 11.505 10.2558C11.6817 10.21 11.8682 10.2195 12.0394 10.283C12.2106 10.3465 12.3581 10.4611 12.4621 10.6111C12.5259 10.7006 12.5713 10.8019 12.5955 10.9091C12.6197 11.0164 12.6224 11.1273 12.6032 11.2355C12.5841 11.3416 12.5431 11.4425 12.4828 11.5318C12.4225 11.6211 12.3443 11.6969 12.2531 11.7543L8.52716 14.1294C8.4565 14.1741 8.37943 14.2079 8.29859 14.2294C8.1219 14.2753 7.93535 14.2659 7.76417 14.2024C7.593 14.139 7.44544 14.0244 7.34146 13.8744C7.22751 13.7134 7.17422 13.5173 7.19103 13.3208L7.20375 13.1825L7.06532 13.1405C6.54168 12.9824 6.04889 12.736 5.6082 12.412L5.4172 12.2718L5.34706 12.4861C5.30939 12.5999 5.27965 12.7161 5.25806 12.834C5.19427 13.193 5.20281 13.5612 5.28317 13.9169C5.36353 14.2725 5.5141 14.6086 5.72605 14.9054C6.07139 15.4031 6.56117 15.783 7.12925 15.9936Z" fill="white"/>
</svg>

<svg xmlns="http://www.w3.org/2000/svg" viewBox="0 0 20 20">
  <rect width="100%" height="100%" fill="#FF3E00"/>
  <path fill="#fff" fill-rule="evenodd" d="M9.27 2.71a4.88 4.88 0 0 1 7.28 3.05 4.29 4.29 0 0 1-.6 3.4 4.5 4.5 0 0 1-.22 4.53c-.34.49-.77.9-1.27 1.22l-3.73 2.38a4.88 4.88 0 0 1-7.27-3.05 4.29 4.29 0 0 1 .6-3.4 4.5 4.5 0 0 1 .21-4.53c.34-.49.77-.9 1.27-1.22L9.27 2.7ZM7.13 16c.57.21 1.19.25 1.77.1.27-.08.53-.2.76-.34l3.73-2.37a2.57 2.57 0 0 0 1.16-1.73 2.74 2.74 0 0 0-.47-2.07 2.96 2.96 0 0 0-3.18-1.17c-.26.07-.52.18-.75.33l-1.43.9a.82.82 0 0 1-.22.1.9.9 0 0 1-1.1-.65.77.77 0 0 1 .34-.85l3.73-2.37a.9.9 0 0 1 1.19.25c.11.17.17.36.15.56l-.01.14.14.04c.52.16 1.01.4 1.45.73l.2.14.06-.22a2.64 2.64 0 0 0 .07-1.43 2.96 2.96 0 0 0-3.62-2.17c-.27.08-.52.2-.76.34L6.62 6.62a2.57 2.57 0 0 0-1.14 2.8A2.96 2.96 0 0 0 9.1 11.6c.27-.07.52-.18.75-.33l1.43-.9a.83.83 0 0 1 .23-.1.9.9 0 0 1 1.09.65c.02.1.02.22 0 .33a.77.77 0 0 1-.35.51l-3.72 2.38a.9.9 0 0 1-1.19-.26.84.84 0 0 1-.15-.55l.01-.14-.13-.04a4.8 4.8 0 0 1-1.46-.73l-.2-.14-.06.22a2.6 2.6 0 0 0-.07 1.43A2.96 2.96 0 0 0 7.13 16Z" clip-rule="evenodd"/>
</svg>
